theme/chrome/browser/symbolic-icons/geolocation.svg

<?xml version="1.0" encoding="UTF-8" standalone="no"?>
<!-- Created with Inkscape (http://www.inkscape.org/) -->

<svg
   xmlns:dc="http://purl.org/dc/elements/1.1/"
   xmlns:cc="http://creativecommons.org/ns#"
   xmlns:rdf="http://www.w3.org/1999/02/22-rdf-syntax-ns#"
   xmlns:svg="http://www.w3.org/2000/svg"
   xmlns="http://www.w3.org/2000/svg"
   xmlns:sodipodi="http://sodipodi.sourceforge.net/DTD/sodipodi-0.dtd"
   xmlns:inkscape="http://www.inkscape.org/namespaces/inkscape"
   width="16px"
   height="16px"
   id="svg3256"
   version="1.1"
   inkscape:version="0.48.3.1 r9886"
   sodipodi:docname="New document 2">
  <defs
     id="defs3258" />
  <sodipodi:namedview
     id="base"
     pagecolor="#ffffff"
     bordercolor="#666666"
     borderopacity="1.0"
     inkscape:pageopacity="0.0"
     inkscape:pageshadow="2"
     inkscape:zoom="31.392433"
     inkscape:cx="2.6886834"
     inkscape:cy="9.2654009"
     inkscape:current-layer="layer1"
     showgrid="true"
     inkscape:grid-bbox="true"
     inkscape:document-units="px"
     inkscape:window-width="1366"
     inkscape:window-height="712"
     inkscape:window-x="0"
     inkscape:window-y="27"
     inkscape:window-maximized="1">
    <inkscape:grid
       type="xygrid"
       id="grid3271" />
  </sodipodi:namedview>
  <metadata
     id="metadata3261">
    <rdf:RDF>
      <cc:Work
         rdf:about="">
        <dc:format>image/svg+xml</dc:format>
        <dc:type
           rdf:resource="http://purl.org/dc/dcmitype/StillImage" />
        <dc:title></dc:title>
      </cc:Work>
    </rdf:RDF>
  </metadata>
  <g
     id="layer1"
     inkscape:label="Layer 1"
     inkscape:groupmode="layer">
    <path
       style="font-size:medium;font-style:normal;font-variant:normal;font-weight:normal;font-stretch:normal;text-indent:0;text-align:start;text-decoration:none;line-height:normal;letter-spacing:normal;word-spacing:normal;text-transform:none;direction:ltr;block-progression:tb;writing-mode:lr-tb;text-anchor:start;baseline-shift:baseline;color:#000000;fill:#2e3436;fill-opacity:1;fill-rule:nonzero;stroke:none;stroke-width:2.80597591;marker:none;visibility:visible;display:inline;overflow:visible;enable-background:accumulate;font-family:Sans;-inkscape-font-specification:Sans"
       d="M 8,1 C 4.14633,1 1,4.1464 1,8 c 0,3.8537 3.14633,7 7,7 3.85367,0 7,-3.1463 7,-7 C 15,4.1464 11.85367,1 8,1 z M 7,3.125 7,6 9,6 9,3.125 C 10.955842,3.5211 12.478852,5.0441 12.875,7 L 10,7 10,9 12.875,9 C 12.478852,10.9558 10.955842,12.4788 9,12.875 l 0,-2.8750001 -2,0 L 7,12.875 C 5.044157,12.4788 3.521148,10.9558 3.125,9 L 6,9 6,7 3.125,7 C 3.521148,5.0441 5.044157,3.5211 7,3.125 z M 8,7 C 7.446,7 7,7.446 7,8 7,8.554 7.446,9 8,9 8.554,9 9,8.554 9,8 9,7.446 8.554,7 8,7 z"
       id="path3869"
       inkscape:connector-curvature="0" />
  </g>
</svg>

<?xml version="1.0" encoding="UTF-8" standalone="no"?>
<svg xmlns:inkscape="http://www.inkscape.org/namespaces/inkscape" xmlns:rdf="http://www.w3.org/1999/02/22-rdf-syntax-ns#" xmlns="http://www.w3.org/2000/svg" inkscape:version="0.48.3.1 r9886" height="16px" width="16px" version="1.1" xmlns:cc="http://creativecommons.org/ns#" xmlns:dc="http://purl.org/dc/elements/1.1/" sodipodi:docname="New document 2" xmlns:sodipodi="http://sodipodi.sourceforge.net/DTD/sodipodi-0.dtd">
<sodipodi:namedview bordercolor="#666666" inkscape:pageshadow="2" inkscape:window-y="27" pagecolor="#ffffff" inkscape:zoom="31.392433" inkscape:grid-bbox="true" inkscape:window-maximized="1" inkscape:window-x="0" showgrid="true" borderopacity="1.0" inkscape:current-layer="layer1" inkscape:cx="2.6886834" inkscape:cy="9.2654009" inkscape:window-height="712" inkscape:pageopacity="0.0" inkscape:window-width="1366" inkscape:document-units="px">
<inkscape:grid type="xygrid"/>
</sodipodi:namedview>
<metadata>
<rdf:RDF>
<cc:Work rdf:about="">
<dc:format>image/svg+xml</dc:format>
<dc:type rdf:resource="http://purl.org/dc/dcmitype/StillImage"/>
<dc:title/>
</cc:Work>
</rdf:RDF>
</metadata>
<g inkscape:label="Layer 1" inkscape:groupmode="layer">
<path style="block-progression:tb;color:#000000;text-transform:none;text-indent:0" fill="#2e3436" d="m8 1c-3.8537 0-7 3.1464-7 7 0 3.8537 3.1463 7 7 7s7-3.1463 7-7c0-3.8536-3.146-7-7-7zm-1 2.125v2.875h2v-2.875c1.956 0.3961 3.479 1.9191 3.875 3.875h-2.875v2h2.875c-0.396 1.956-1.919 3.479-3.875 3.875v-2.875h-2v2.875c-1.9558-0.396-3.4789-1.919-3.875-3.875h2.875v-2h-2.875c0.3961-1.9559 1.9192-3.4789 3.875-3.875zm1 3.875c-0.554 0-1 0.446-1 1s0.446 1 1 1 1-0.446 1-1-0.446-1-1-1z" inkscape:connector-curvature="0"/>
</g>
</svg>
